{
  "compressionlevel": -1,
  "height": 12,
  "infinite": false,
  "layers": [
    {
      "id": 1,
      "name": "BACKGROUND",
      "type": "imagelayer",
      "visible": true,
      "opacity": 1,
      "offsetx": 0,
      "offsety": 0,
      "image": "../libresprite/campus/01_sky.png"
    },
    {
      "id": 2,
      "name": "FAR_WORLD",
      "type": "imagelayer",
      "visible": true,
      "opacity": 1,
      "offsetx": 0,
      "offsety": 0,
      "image": "../libresprite/campus/02_far_vegetation.png"
    },
    {
      "id": 3,
      "name": "ARCHITECTURE",
      "type": "imagelayer",
      "visible": true,
      "opacity": 1,
      "offsetx": 0,
      "offsety": 0,
      "image": "../libresprite/campus/03_architecture.png"
    },
    {
      "id": 4,
      "name": "GROUND",
      "type": "imagelayer",
      "visible": true,
      "opacity": 1,
      "offsetx": 0,
      "offsety": 0,
      "image": "../libresprite/campus/04_ground.png"
    },
    {
      "id": 5,
      "name": "PROPS_BACK",
      "type": "imagelayer",
      "visible": true,
      "opacity": 1,
      "offsetx": 0,
      "offsety": 0,
      "image": "../libresprite/campus/05_mid_vegetation.png"
    },
    {
      "id": 6,
      "name": "PROPS_FRONT",
      "type": "imagelayer",
      "visible": true,
      "opacity": 1,
      "offsetx": 0,
      "offsety": 0,
      "image": "../libresprite/campus/06_props.png"
    },
    {
      "id": 7,
      "name": "FOREGROUND",
      "type": "imagelayer",
      "visible": true,
      "opacity": 1,
      "offsetx": 0,
      "offsety": 0,
      "image": "../libresprite/campus/07_foreground.png"
    },
    {
      "id": 8,
      "name": "LIGHTING",
      "type": "imagelayer",
      "visible": true,
      "opacity": 1,
      "offsetx": 0,
      "offsety": 0,
      "image": "../libresprite/campus/08_lighting.png"
    },
    {
      "draworder": "topdown",
      "id": 9,
      "name": "FX_MARKERS",
      "objects": [
        {"id":1,"name":"firefly-a","point":true,"type":"firefly","x":48,"y":95},
        {"id":2,"name":"firefly-b","point":true,"type":"firefly","x":88,"y":112},
        {"id":3,"name":"firefly-c","point":true,"type":"firefly","x":215,"y":99},
        {"id":4,"name":"firefly-d","point":true,"type":"firefly","x":271,"y":115},
        {"id":5,"name":"rain-area","type":"rain","x":0,"y":0,"width":320,"height":180}
      ],
      "opacity": 1,
      "type": "objectgroup",
      "visible": true,
      "x": 0,
      "y": 0
    },
    {
      "draworder": "topdown",
      "id": 10,
      "name": "INTERACTION_MARKERS",
      "objects": [
        {"id":6,"name":"hero-safe-left","type":"ui-safe","x":12,"y":30,"width":118,"height":92},
        {"id":7,"name":"task-panel-safe-right","type":"ui-safe","x":210,"y":28,"width":100,"height":116}
      ],
      "opacity": 1,
      "type": "objectgroup",
      "visible": true,
      "x": 0,
      "y": 0
    }
  ],
  "nextlayerid": 11,
  "nextobjectid": 8,
  "orientation": "orthogonal",
  "renderorder": "right-down",
  "tiledversion": "1.12.2",
  "tileheight": 16,
  "tilesets": [],
  "tilewidth": 16,
  "type": "map",
  "version": "1.10",
  "width": 20
}
